tools/download-figma-icons/icons/solid/build.svg

<svg width="24" height="24" viewBox="0 0 24 24" fill="none" xmlns="http://www.w3.org/2000/svg">
<path fill-rule="evenodd" clip-rule="evenodd" d="M23.175 4.18492C23.1825 4.19992 23.1975 4.23742 23.1975 4.23742C23.2275 4.31992 23.25 4.40992 23.25 4.49992V13.4999C23.25 13.7624 23.115 14.0099 22.8825 14.1449L19.1475 16.3874C19.1025 16.4174 19.05 16.4399 18.9975 16.4549C18.96 16.4699 18.9225 16.4774 18.885 16.4849L18.885 16.4849C18.84 16.4924 18.795 16.4999 18.75 16.4999C18.6225 16.4999 18.4875 16.4699 18.375 16.3949H18.36L14.6175 14.1449L10.8675 11.8949C10.635 11.7599 10.5 11.5124 10.5 11.2499V6.74992C10.5 6.65992 10.5225 6.56992 10.5525 6.48742C10.5543 6.48388 10.5565 6.47992 10.5588 6.47574C10.5662 6.46221 10.575 6.44638 10.575 6.43492C10.6125 6.35242 10.6575 6.28492 10.7175 6.22492C10.7204 6.22206 10.7232 6.22029 10.7257 6.21877C10.7296 6.21633 10.7325 6.21456 10.7325 6.20992C10.7433 6.20089 10.7537 6.19186 10.764 6.18293C10.7964 6.15479 10.8276 6.1277 10.8675 6.10492L18.3675 1.60492C18.6 1.46242 18.9 1.46242 19.1325 1.60492L22.8825 3.85492C22.9224 3.8777 22.9536 3.90479 22.986 3.93293C22.9963 3.94186 23.0067 3.95089 23.0175 3.95992C23.0175 3.96456 23.0204 3.96633 23.0243 3.96877C23.0268 3.97029 23.0296 3.97206 23.0325 3.97492C23.0925 4.03492 23.1375 4.10242 23.175 4.18492ZM19.5 14.4224L21.75 13.0724V5.82742L15.75 9.42742V12.1724L18.3675 10.6049C18.5925 10.4699 18.885 10.4624 19.1175 10.5974C19.3575 10.7324 19.5 10.9799 19.5 11.2499V14.4224ZM13.425 14.6849C13.4325 14.6999 13.4475 14.7374 13.4475 14.7374C13.4775 14.8199 13.5 14.9099 13.5 14.9999V19.4999C13.5 19.5149 13.4962 19.528 13.4925 19.5412C13.4887 19.5543 13.485 19.5674 13.485 19.5824C13.4775 19.6349 13.47 19.6874 13.455 19.7324C13.443 19.7743 13.4263 19.8066 13.4086 19.8408C13.4041 19.8495 13.3996 19.8583 13.395 19.8674C13.3725 19.9049 13.3425 19.9424 13.3125 19.9799L13.3125 19.9799C13.2825 20.0174 13.245 20.0549 13.2 20.0849C13.1775 20.0999 13.1325 20.1449 13.1325 20.1449L9.3825 22.3949C9.3675 22.4024 9.345 22.4099 9.3225 22.4174C9.3 22.4324 9.2775 22.4399 9.255 22.4474C9.1725 22.4774 9.09 22.4999 9 22.4999C8.91 22.4999 8.8275 22.4774 8.745 22.4474C8.7225 22.4399 8.7 22.4324 8.6775 22.4174C8.655 22.4099 8.6175 22.3949 8.6175 22.3949L1.1175 17.8949C1.10023 17.8863 1.08794 17.8727 1.07632 17.8598C1.06775 17.8504 1.05955 17.8413 1.05 17.8349C1.005 17.8049 0.9675 17.7674 0.9375 17.7299C0.9075 17.6924 0.8775 17.6549 0.855 17.6174C0.850438 17.6083 0.845877 17.5995 0.841378 17.5908C0.823685 17.5566 0.806959 17.5243 0.795 17.4824C0.78 17.4374 0.7725 17.3849 0.765 17.3324C0.765 17.3024 0.75 17.2499 0.75 17.2499V8.24992C0.75 8.15992 0.7725 8.06992 0.8025 7.98742C0.804271 7.98388 0.806459 7.97992 0.808769 7.97574C0.816246 7.96222 0.825 7.94638 0.825 7.93492C0.8625 7.85242 0.9075 7.78492 0.9675 7.72492C0.970365 7.72206 0.973229 7.72029 0.975676 7.71877C0.979635 7.71633 0.9825 7.71456 0.9825 7.70992C0.993339 7.70089 1.00374 7.69186 1.01402 7.68293C1.04643 7.65479 1.07764 7.6277 1.1175 7.60492L4.8675 5.35492C5.1 5.21242 5.4 5.21242 5.6325 5.35492L9.3825 7.60492C9.42235 7.6277 9.45356 7.65479 9.48597 7.68293C9.49626 7.69186 9.50666 7.70089 9.5175 7.70992C9.5175 7.71456 9.52036 7.71633 9.52432 7.71877C9.52677 7.72029 9.52964 7.72206 9.5325 7.72492C9.5925 7.78492 9.6375 7.85242 9.675 7.93492C9.67875 7.94242 9.6825 7.9518 9.68625 7.96118C9.69 7.97055 9.69375 7.97992 9.6975 7.98742C9.7275 8.06992 9.75 8.15992 9.75 8.24992V12.3224L13.1325 14.3549C13.1724 14.3777 13.2036 14.4048 13.236 14.4329C13.2463 14.4419 13.2567 14.4509 13.2675 14.4599C13.2675 14.4646 13.2704 14.4663 13.2743 14.4688C13.2768 14.4703 13.2796 14.4721 13.2825 14.4749C13.3425 14.5349 13.3875 14.6024 13.425 14.6849ZM2.25 16.8224L8.25 20.4224V17.6774L4.8675 15.6449C4.82764 15.6221 4.79643 15.5951 4.76402 15.5669C4.75374 15.558 4.74334 15.549 4.7325 15.5399C4.7325 15.5249 4.725 15.5249 4.7175 15.5249C4.6575 15.4649 4.6125 15.3974 4.575 15.3149C4.57125 15.3074 4.5675 15.298 4.56375 15.2887C4.56 15.2793 4.55625 15.2699 4.5525 15.2624C4.5225 15.1799 4.5 15.0899 4.5 14.9999V10.9274L2.25 9.57742V16.8224Z" fill="black"/>
</svg>

<svg width="24" height="24" viewBox="0 0 24 24" fill="none" xmlns="http://www.w3.org/2000/svg"><path fill-rule="evenodd" clip-rule="evenodd" d="M23.175 4.185a.78.78 0 0 1 .075.315v9c0 .262-.135.51-.367.645l-3.735 2.242a.541.541 0 0 1-.15.068c-.038.015-.076.022-.113.03-.045.007-.09.015-.135.015a.677.677 0 0 1-.375-.105h-.015l-3.742-2.25-3.75-2.25a.743.743 0 0 1-.368-.645v-4.5c0-.09.023-.18.053-.263l.006-.011c.007-.014.016-.03.016-.041a.693.693 0 0 1 .15-.216c.005-.003.008-.004.008-.01l.031-.026a.638.638 0 0 1 .104-.078l7.5-4.5a.738.738 0 0 1 .765 0l3.75 2.25c.04.023.07.05.103.078l.031.027c0 .005.003.006.007.009a.693.693 0 0 1 .15.216ZM19.5 14.422l2.25-1.35V5.827l-6 3.6v2.745l2.617-1.567a.745.745 0 0 1 .75-.008c.24.135.383.383.383.653v3.172Zm-6.075.263.022.052A.78.78 0 0 1 13.5 15v4.5c0 .015-.004.028-.008.041a.144.144 0 0 0-.007.041c-.008.053-.015.105-.03.15a.561.561 0 0 1-.06.135c-.022.038-.053.075-.082.113a.505.505 0 0 1-.113.105.692.692 0 0 0-.067.06l-3.75 2.25a.517.517 0 0 1-.06.022A.737.737 0 0 1 9 22.5a.737.737 0 0 1-.324-.082 1.44 1.44 0 0 1-.06-.022l-7.5-4.5a.142.142 0 0 1-.04-.035c-.01-.01-.017-.019-.027-.025a.505.505 0 0 1-.113-.105c-.03-.038-.06-.075-.082-.113l-.014-.026c-.017-.034-.034-.067-.046-.109a.83.83 0 0 1-.03-.15c0-.03-.015-.082-.015-.082v-9a.78.78 0 0 1 .059-.274.104.104 0 0 0 .016-.041.693.693 0 0 1 .143-.21.016.016 0 0 1 .008-.006c.004-.003.007-.004.007-.01l.031-.026a.64.64 0 0 1 .103-.078l3.75-2.25a.738.738 0 0 1 .766 0l3.75 2.25a.64.64 0 0 1 .103.078l.031.027c0 .005.003.006.007.009l.009.006c.06.06.104.127.142.21l.011.026.011.026a.78.78 0 0 1 .053.263v4.072l3.383 2.033c.04.023.07.05.103.078l.031.027c0 .005.003.006.007.009a.693.693 0 0 1 .15.216ZM2.25 16.822l6 3.6v-2.745l-3.383-2.032a.638.638 0 0 1-.103-.078 2.703 2.703 0 0 0-.032-.027c0-.015-.007-.015-.014-.015a.693.693 0 0 1-.143-.21l-.011-.026-.011-.027A.78.78 0 0 1 4.5 15v-4.073l-2.25-1.35v7.245Z" fill="currentColor"/></svg>
